X:1
T:Title
%%score { 1 | 2 }
L:1/8
M:6/8
K:Ab
V:1 treble nm="Grand Piano"
V:2 bass 
V:1
 z3 z2[Q:1/4=104] [CE] | [CA]2 [CA] [DG]2 [DF] | [CE]3 [CA]2 [DB] | [Ec]2 [EA] [=Dc]2 [Dc] | %4
[M:5/8] [EB]-[EB]- [EB]3 |[M:1/8] [DE] |[M:3/4] [CA]2 [CA] [DG]2 [DF] | [CE]3 [EA]2 [FB] | %8
 c2 A B2 B | [CA]6 | c3 e3 | c3 [EA]3 | [FA]2 [EG] F2 A | E6 | c3 e3 | c3 [EA]3 | %16
 [=Dc]2 [DB] [DA]2 [Dc] | [EB]6 | [Gd]3 [Gf]3 | [Gd]3 [GB]3 | [Gd]2 [Ac] [GB]2 [Gd] | %21
 [Ac]4- [Ac][CE] | [DF]2 [EG] [EA]2 B | c3 [Ee]2 [Fd] | c2 A B2 B |[M:5/8] [CA]-[CA]- [CA]3 |] %26
V:2
 z3 z2 [A,,A,] | [A,,E,]2 [A,,E,] [A,,A,]2 [A,,A,] | [A,,A,]3 [A,,E,]2 [A,,E,] | %3
 [A,,A,]2 [C,A,] [B,,A,]2 [B,,A,] |[M:5/8] [E,G,]-[E,G,]- [E,G,]3 |[M:1/8] [E,G,] | %6
[M:3/4] [A,,A,]2 [A,,E,] [A,,A,]2 [A,,A,] | [A,,A,]3 [C,A,]2 [D,A,] | %8
 [E,A,E]2 [E,A,C] [E,G,D]2 [E,G,D] | [A,,A,]6 | [A,EA]3 [A,CA]3 | [A,EA]3[K:bass] [C,A,]3 | %12
 [D,A,]2 [D,A,] [D,A,D]2 [F,A,D] | [A,C]6 | [A,EA]3 [A,CA]3 | [A,EA]3[K:bass] [C,A,]3 | %16
 [B,,A,]2 [B,,F,] [B,,F,]2 [B,,A,] | [E,G,]6 | [E,B,]3 [E,B,]3 | [E,B,]3 [E,E]3 | %20
 [E,E]2 [E,E] [E,E]2 [E,E] | [A,E]4- [A,E][A,,A,] | [D,A,]2 [D,B,] [C,A,]2 [E,G,E] | %23
 [A,E]3 [C,A,]2 [D,A,] | [E,A,E]2 [E,A,C] [E,G,D]2 [E,G,D] |[M:5/8] [A,,A,]-[A,,A,]- [A,,A,]3 |] %26

